assets/insta.svg

<svg width="22" height="22" viewBox="0 0 22 22" fill="none" xmlns="http://www.w3.org/2000/svg">
<path d="M11.0007 8.24992C10.2713 8.24992 9.57183 8.53965 9.05611 9.05537C8.54038 9.5711 8.25065 10.2706 8.25065 10.9999C8.25065 11.7293 8.54038 12.4287 9.05611 12.9445C9.57183 13.4602 10.2713 13.7499 11.0007 13.7499C11.73 13.7499 12.4295 13.4602 12.9452 12.9445C13.4609 12.4287 13.7507 11.7293 13.7507 10.9999C13.7507 10.2706 13.4609 9.5711 12.9452 9.05537C12.4295 8.53965 11.73 8.24992 11.0007 8.24992ZM11.0007 6.41659C12.2162 6.41659 13.382 6.89947 14.2416 7.75901C15.1011 8.61855 15.584 9.78434 15.584 10.9999C15.584 12.2155 15.1011 13.3813 14.2416 14.2408C13.382 15.1004 12.2162 15.5833 11.0007 15.5833C9.78508 15.5833 8.61929 15.1004 7.75974 14.2408C6.9002 13.3813 6.41732 12.2155 6.41732 10.9999C6.41732 9.78434 6.9002 8.61855 7.75974 7.75901C8.61929 6.89947 9.78508 6.41659 11.0007 6.41659V6.41659ZM16.959 6.18742C16.959 6.49131 16.8383 6.78276 16.6234 6.99764C16.4085 7.21253 16.117 7.33325 15.8132 7.33325C15.5093 7.33325 15.2178 7.21253 15.0029 6.99764C14.788 6.78276 14.6673 6.49131 14.6673 6.18742C14.6673 5.88352 14.788 5.59208 15.0029 5.37719C15.2178 5.16231 15.5093 5.04159 15.8132 5.04159C16.117 5.04159 16.4085 5.16231 16.6234 5.37719C16.8383 5.59208 16.959 5.88352 16.959 6.18742V6.18742ZM11.0007 3.66659C8.73282 3.66659 8.36248 3.673 7.3074 3.71975C6.58873 3.75367 6.10657 3.84992 5.65923 4.02409C5.28488 4.16153 4.94645 4.38182 4.66923 4.6685C4.38232 4.9457 4.16172 5.28412 4.0239 5.6585C3.84973 6.10767 3.75348 6.58892 3.72048 7.30667C3.67282 8.31867 3.66732 8.6725 3.66732 10.9999C3.66732 13.2678 3.67373 13.6381 3.72048 14.6932C3.7544 15.4109 3.85065 15.894 4.0239 16.3404C4.17973 16.7392 4.36307 17.0261 4.6674 17.3304C4.97632 17.6384 5.26323 17.8227 5.6574 17.9748C6.11023 18.1499 6.5924 18.2471 7.3074 18.2801C8.3194 18.3278 8.67323 18.3333 11.0007 18.3333C13.2685 18.3333 13.6388 18.3268 14.6939 18.2801C15.4107 18.2462 15.8938 18.1499 16.3412 17.9767C16.7149 17.8385 17.0532 17.6187 17.3312 17.3332C17.6401 17.0243 17.8243 16.7373 17.9765 16.3432C18.1507 15.8913 18.2478 15.4082 18.2808 14.6932C18.3285 13.6812 18.334 13.3273 18.334 10.9999C18.334 8.73209 18.3276 8.36175 18.2808 7.30667C18.2469 6.58984 18.1507 6.10583 17.9765 5.6585C17.8383 5.2845 17.6181 4.94622 17.3321 4.6685C17.055 4.38144 16.7165 4.16082 16.3421 4.02317C15.8929 3.849 15.4107 3.75275 14.6939 3.71975C13.6819 3.67209 13.3281 3.66659 11.0007 3.66659ZM11.0007 1.83325C13.4912 1.83325 13.802 1.84242 14.7792 1.88825C15.7554 1.93409 16.42 2.08717 17.0048 2.3145C17.6098 2.54734 18.1195 2.86267 18.6292 3.37142C19.0953 3.82966 19.4559 4.38396 19.6861 4.99575C19.9125 5.57967 20.0665 6.24517 20.1123 7.22142C20.1554 8.19858 20.1673 8.50933 20.1673 10.9999C20.1673 13.4905 20.1582 13.8013 20.1123 14.7784C20.0665 15.7547 19.9125 16.4193 19.6861 17.0041C19.4566 17.6162 19.0958 18.1707 18.6292 18.6284C18.1708 19.0944 17.6165 19.455 17.0048 19.6853C16.4209 19.9118 15.7554 20.0658 14.7792 20.1116C13.802 20.1547 13.4912 20.1666 11.0007 20.1666C8.51007 20.1666 8.19932 20.1574 7.22215 20.1116C6.2459 20.0658 5.58132 19.9118 4.99648 19.6853C4.38445 19.4557 3.83005 19.095 3.37215 18.6284C2.90594 18.1703 2.54525 17.6159 2.31523 17.0041C2.0879 16.4202 1.93482 15.7547 1.88898 14.7784C1.8459 13.8013 1.83398 13.4905 1.83398 10.9999C1.83398 8.50933 1.84315 8.19858 1.88898 7.22142C1.93482 6.24425 2.0879 5.58058 2.31523 4.99575C2.54462 4.38358 2.90539 3.82913 3.37215 3.37142C3.83018 2.90505 4.38454 2.54434 4.99648 2.3145C5.58132 2.08717 6.24498 1.93409 7.22215 1.88825C8.19932 1.84517 8.51007 1.83325 11.0007 1.83325Z" fill="#1A191E"/>
</svg>

<svg width="22" height="22" fill="none" xmlns="http://www.w3.org/2000/svg"><path d="M11 8.25a2.75 2.75 0 1 0 0 5.5 2.75 2.75 0 0 0 0-5.5Zm0-1.833a4.584 4.584 0 1 1 0 9.167 4.584 4.584 0 0 1 0-9.167Zm5.959-.23a1.146 1.146 0 1 1-2.291 0 1.146 1.146 0 0 1 2.291 0Zm-5.958-2.52c-2.268 0-2.639.006-3.694.053-.718.034-1.2.13-1.648.304a2.645 2.645 0 0 0-.99.644 2.65 2.65 0 0 0-.645.99c-.174.45-.27.93-.304 1.649-.047 1.012-.053 1.365-.053 3.693 0 2.268.007 2.638.053 3.693.034.718.13 1.201.304 1.647.156.4.34.686.643.99.31.308.596.493.99.645.453.175.935.272 1.65.305 1.012.048 1.366.053 3.694.053 2.268 0 2.638-.006 3.693-.053.717-.034 1.2-.13 1.647-.303.374-.139.712-.358.99-.644.31-.309.493-.596.646-.99.174-.452.27-.935.304-1.65.047-1.012.053-1.366.053-3.693 0-2.268-.006-2.638-.053-3.693-.034-.717-.13-1.201-.304-1.649a2.67 2.67 0 0 0-.645-.99 2.644 2.644 0 0 0-.99-.645c-.45-.174-.931-.27-1.648-.303-1.012-.048-1.366-.053-3.693-.053Zm0-1.834c2.49 0 2.801.01 3.778.055.976.046 1.641.2 2.226.426a4.47 4.47 0 0 1 1.624 1.057 4.5 4.5 0 0 1 1.057 1.625c.227.584.38 1.25.426 2.225.043.978.055 1.288.055 3.779 0 2.49-.009 2.801-.055 3.778-.045.977-.2 1.641-.426 2.226a4.477 4.477 0 0 1-1.057 1.624 4.505 4.505 0 0 1-1.624 1.057c-.584.227-1.25.38-2.226.427-.977.043-1.288.055-3.778.055s-2.802-.01-3.779-.055c-.976-.046-1.64-.2-2.226-.427a4.481 4.481 0 0 1-1.624-1.057 4.495 4.495 0 0 1-1.057-1.624c-.227-.584-.38-1.25-.426-2.226-.043-.977-.055-1.287-.055-3.778 0-2.49.01-2.801.055-3.779.046-.977.199-1.64.426-2.225.23-.612.59-1.167 1.057-1.625a4.489 4.489 0 0 1 1.624-1.057c.585-.227 1.249-.38 2.226-.426.977-.043 1.288-.055 3.779-.055Z" fill="#1A191E"/></svg>
